!!!COM: Honegger, Arthur
!!!OTL: Sonata No. 1 for Violin and Piano
!!!OMV: III: Adagio
!!!example: 585
!!!work: Hon-6
**kern	**kern	**kern	**dynam
*part2	*part2	*part1	*part1
*staff3	*staff2	*staff1	*
*I"Piano	*	*I"Violin	*
*I'Pno.	*	*I'Vln.	*
*clefF4	*clefF4	*clefG2	*
*k[f#c#g#d#]	*k[f#c#g#d#]	*k[f#c#g#d#]	*
*E:	*E:	*E:	*
*M3/4	*M3/4	*M3/4	*
*MM121	*MM121	*MM121	*
=16	=16	=16	=16
*^	*^	*	*
2GG#	4CC#	4C# 4c#	2G#	8f#L	.
.	.	.	.	([8eJ	.
.	4DD#	4D# 4d#	.	4e]	.
[4GG#	4EE	4E 4e	[4G#	[4B#X	.
=17	=17	=17	=17	=17	=17
4GG#]	4EE	4E 4e	4G#]	8B#L]	.
.	.	.	.	8B#XJ	.
2GG#	4DD#	4D# 4d#	2G#	4c#	.
.	4CC#	4C# 4c#	.	4d#)	.
*v	*v	*	*	*	*
*	*v	*v	*	*
=18	=18	=18	=18
*M4/4	*M4/4	*M4/4	*
*^	*^	*	*
1GG#	4DD#	4D# 4d#	1G#	2c#	>
.	2GGG#	2GG# 2G#	.	.	.
.	.	.	.	[4.Bn	.
.	4GGG#	4GG# 4G#	.	.	.
.	.	.	.	8B]	]]
*v	*v	*	*	*	*
*	*v	*v	*	*
=19	=19	=19	=19
*M3/4	*M3/4	*M3/4	*
*^	*^	*	*
2GG#	4CC#	4C# 4c#	2G#	([2B	.
.	4DD#	4D# 4d#	.	.	.
[4GG#	4EE	4E 4e	[4G#	8BL]	.
.	.	.	.	[8AJ	.
=20	=20	=20	=20	=20	=20
4GG#]	4EE	4E 4e	4G#]	8AL]	.
.	.	.	.	8A#XJ)	.
2GG#	4DD#	4D# 4d#	2G#	(4.c#	.
.	4CC#	4C# 4c#	.	.	.
.	.	.	.	8f##X)	.
*v	*v	*	*	*	*
*	*v	*v	*	*
=21	=21	=21	=21
*M4/4	*M4/4	*M4/4	*
*^	*^	*	*
1GG#	4DD#	4D# 4d#	1G#	(4.f##X	<
.	2GGG#	2GG# 2G#	.	.	.
.	.	.	.	8g#)	.
.	.	.	.	(4an	[
.	4GGG#	4GG# 4G#	.	4b)	.
*v	*v	*	*	*	*
*	*v	*v	*	*
=22	=22	=22	=22
*M3/4	*M3/4	*M3/4	*
*^	*^	*	*
2GG#	4CC#	4C# 4c#	2G#	(4.b-X	>
.	4DD#	4D# 4d#	.	.	.
.	.	.	.	8a	.
[4GG#	4EE	4E 4e	[4G#	4a)	]]
=23	=23	=23	=23	=23	=23
4GG#]	4EE	4E 4e	4G#]	([2g#X	.
2GG#	4DD#	4D# 4d#	2G#	.	.
.	4CC#	4C# 4c#	.	8g#L]	.
.	.	.	.	8gnJ)	.
*v	*v	*	*	*	*
*	*v	*v	*	*
=24	=24	=24	=24
*M4/4	*M4/4	*M4/4	*
*^	*^	*	*
1GG#	4DD#	4D# 4d#	1G#	(4gn	.
.	2GGG#	2GG# 2G#	.	4f#X)	.
.	.	.	.	(4.f#	.
.	4GGG#	4GG# 4G#	.	.	.
.	.	.	.	8e)	.
*v	*v	*	*	*	*
*	*v	*v	*	*
=25	=25	=25	=25
*M3/4	*M3/4	*M3/4	*
*^	*^	*	*
2GG#	4CC#	4C# 4c#	2G#	([2.e	.
.	4DD#	4D# 4d#	.	.	.
[4GG#	4EE	4E 4e	[4G#	.	.
=26	=26	=26	=26	=26	=26
4GG#]	4EE	4E 4e	4G#]	8eL]	.
.	.	.	.	8d#J	.
2GG#	4DD#	4D# 4d#	2G#	2B)	.
.	4CC#	4C# 4c#	.	.	.
*v	*v	*	*	*	*
*	*v	*v	*	*
=27	=27	=27	=27
*M4/4	*M4/4	*M4/4	*
*^	*^	*	*
1GG#	4DD#	4D# 4d#	1G#	(4cn	.
.	2GGG#	2GG# 2G#	.	4B)	.
.	.	.	.	(4.B-X	.
.	4GGG#	4GG# 4G#	.	.	.
.	.	.	.	8A)	.
*v	*v	*	*	*	*
*	*v	*v	*	*
=28	=28	=28	=28
*M3/4	*M3/4	*M3/4	*
*^	*^	*	*
2GG#	4CC#	4C# 4c#	2G#	[2A	.
.	4DD#	4D# 4d#	.	.	.
[4GG#	4EE	4E 4e	[4G#	8AL]	.
.	.	.	.	([8AJ	.
=29	=29	=29	=29	=29	=29
4GG#]	4EE	4E 4e	4G#]	8AL]	.
.	.	.	.	8G#J)	.
2GG#	4DD#	4D# 4d#	2G#	4r	.
.	4CC#	4C# 4c#	.	4r	.
*v	*v	*	*	*	*
*	*v	*v	*	*
=30	=30	=30	=30
*M4/4	*M4/4	*M4/4	*
*^	*^	*	*
1GG#	4DD#	4D# 4d#	1G#	2r	.
.	2GGG#	2GG# 2G#	.	.	.
.	.	.	.	4r	.
.	4GGG#	4GG# 4G#	.	8r	.
.	.	.	.	([8A	.
*v	*v	*	*	*	*
*	*v	*v	*	*
=31	=31	=31	=31
*M3/4	*M3/4	*M3/4	*
*^	*	*	*
2GG#	4CC#	4C#	4A_	.
.	4DD#	4D#	8AL]	.
.	.	.	8G#J)	.
[4GG#	4EE	4E	4r	.
=32	=32	=32	=32	=32
4GG#]	4EE	4E	4r	.
2GG#	4DD#	4D#	4r	.
.	4CC#	4C#	8r	.
.	.	.	([8A-X	> pp
*v	*v	*	*	*
=33	=33	=33	=33
*M4/4	*M4/4	*M4/4	*
*^	*	*	*
1GG#	4DD#	4D#	2A-]	.
.	2GGG#	2GG#	.	.
.	.	.	4G#)	]
.	4GGG#	4GG#	4r	.
*v	*v	*	*	*
=	=	=	=
*-	*-	*-	*-
!!!system-decoration: s1{(s2,s3)}
!!!CDT: 1892/03/10-1955/11/27
!!!CBL: Le Havre, France
!!!CDL: Paris, France
!!!CNT: Swiss, French
!!!AGN: Instrumental; Chamber
!!!MCN:
!!!MDT: 1918/03/19
!!!MGN:
!!!MLC: Paris, France
!!!MPD: 1918
!!!MPN: Andrée, Vaurabourg; Jourdan-Morhange, Hélène
!!!ODT: 1918
!!!PDT: 1921
!!!excerpt-start-measure: 16
!!!excerpt-end-measure: 33
!!!excerpt-start-time: 0:55
!!!excerpt-end-time: 2:02
!!!EEV: 2020/01/22
!!!ONB: Converted from MusicXML on 2020/01/22
